src/static/logos/locent.svg

<?xml version="1.0" encoding="UTF-8" standalone="no"?>
<svg width="256px" height="257px" viewBox="0 0 256 257" version="1.1" xmlns="http://www.w3.org/2000/svg" xmlns:xlink="http://www.w3.org/1999/xlink" preserveAspectRatio="xMidYMid">
    <g>
        <path d="M178.7441,77.6384 L228.6591,77.6384 L228.6591,47.5134 L208.9361,47.5134 L208.9361,27.7234 L178.7441,27.7234 L178.7441,77.6384 Z M199.3557,128.1438 L234.6507,163.4388 L255.9527,142.1368 L242.0067,128.1918 L255.9997,114.1978 L234.6507,92.8478 L199.3557,128.1438 Z M114.3408,5.68434189e-14 L92.9908,21.35 L128.2868,56.645 L163.5828,21.35 L142.2808,0.048 L128.3348,13.994 L114.3408,5.68434189e-14 Z M77.8296,178.6484 L27.9146,178.6484 L27.9146,208.7734 L47.6376,208.7734 L47.6376,228.5634 L77.8296,228.5634 L77.8296,178.6484 Z M0.048,114.1497 L13.994,128.0957 L5.68434189e-14,142.0897 L21.349,163.4387 L56.645,128.1437 L21.349,92.8477 L0.048,114.1497 Z M77.8296,77.6384 L77.8296,27.7234 L47.7046,27.7234 L47.7046,47.4464 L27.9146,47.4464 L27.9146,77.6384 L77.8296,77.6384 Z M178.7441,178.6484 L178.7441,228.5634 L208.8691,228.5634 L208.8691,208.8404 L228.6591,208.8404 L228.6591,178.6484 L178.7441,178.6484 Z M92.991,234.9378 L114.293,256.2388 L128.239,242.2928 L142.233,256.2868 L163.582,234.9378 L128.287,199.6418 L92.991,234.9378 Z M128.258,65.3304 C93.525,65.3304 65.368,93.4874 65.368,128.2204 C65.368,162.9534 93.525,191.1094 128.258,191.1094 C162.991,191.1094 191.148,162.9534 191.148,128.2204 C191.148,93.4874 162.991,65.3304 128.258,65.3304 Z M128.258,162.0504 C109.574,162.0504 94.428,146.9044 94.428,128.2204 C94.428,109.5364 109.574,94.3894 128.258,94.3894 C146.942,94.3894 162.088,109.5364 162.088,128.2204 C162.088,146.9044 146.942,162.0504 128.258,162.0504 Z" fill="#397FF8"></path>
    </g>
</svg>

<svg width="256" height="257" xmlns="http://www.w3.org/2000/svg" preserveAspectRatio="xMidYMid"><path d="M178.744 77.638h49.915V47.513h-19.723v-19.79h-30.192v49.915zm20.612 50.506l35.295 35.295 21.302-21.302-13.946-13.945L256 114.198l-21.35-21.35-35.294 35.296zM114.34 0L92.99 21.35l35.296 35.295 35.296-35.295L142.28.048l-13.946 13.946L114.34 0zM77.83 178.648H27.915v30.125h19.723v19.79H77.83v-49.915zM.048 114.15l13.946 13.946L0 142.09l21.349 21.349 35.296-35.295-35.296-35.296L.048 114.15zM77.83 77.638V27.723H47.705v19.723h-19.79v30.192H77.83zm100.914 101.01v49.915h30.125V208.84h19.79v-30.192h-49.915zm-85.753 56.29l21.302 21.3 13.946-13.945 13.994 13.994 21.349-21.35-35.295-35.295-35.296 35.296zM128.258 65.33c-34.733 0-62.89 28.157-62.89 62.89 0 34.733 28.157 62.89 62.89 62.89 34.733 0 62.89-28.157 62.89-62.89 0-34.733-28.157-62.89-62.89-62.89zm0 96.72c-18.684 0-33.83-15.146-33.83-33.83 0-18.684 15.146-33.83 33.83-33.83 18.684 0 33.83 15.146 33.83 33.83 0 18.684-15.146 33.83-33.83 33.83z" fill="#397FF8"/></svg>
